!!!OTL: Graf und Nonne (Die Nonne) Ich steig auf hohe Berge
!!!ARE: Europa, Suedosteuropa, Rumaenien, Siebenbuergen
!!!YOR: 8, S. 285
!!    1909 gedruckt
!!!SCT: Q0155x
!!!YEM: Copyright 1995, estate of Helmut Schaffrath.
**kern
*ICvox
*Ivox
*M4/4
*k[b-e-]
*g:
{4d
=1
4.g
8a
8b-
8a
4g
=2
4.dd
8cc
8dd
8cc}
{4b-
=3
4cc
4dd
8ee-
8dd
8cc
8b-
=4
2a
4r}
{8dd
8ee-
=5
8ffn
8ee-
4dd
8dd
8cc
4b-
=6
4.cc
8b-
2cc}
=7
{4b-
4dd
8b-
8a
4g
=8
4.a
8g
4a}
{4dd
=9
8dd
8cc
8b-
8a
4g
4f#
=10
2g
4r}
{4dd
=11
8dd
8cc
8b-
8a
4g
4f#
=12
2g
4r}
==
!!!AGN: Ballade, Standesunterschied, vergebliche Werbung, Liebe, Klage
!! Vorletzten Takt der fuenften und sechsten Zeile gemaess der Taktart
!!    rhythmisch korrigiert.
!!!ONB: ESAC (Essen Associative Code) Database: BALLADE
!!!AMT: simple quadruple
!!!AIN: vox
!!!EED: Helmut Schaffrath
!!!EEV: 1.0
*-
